X: 17634
T: Hole In The Coat, The
R: jig
M: 6/8
K: Dmajor
B|:FDD EDD|FAA BAA|def edB|ABd AFE|
FDD EDD|FAA BAA|dcB cBA|GFE D2E:|
|:faa fee|fdB ABd|faa fdd|faf e2e|
faa fee|fdB ABd|fgf ede|fdc d2:|

